src/static/logos/memsql-icon.svg

<?xml version="1.0" encoding="UTF-8"?>
<svg width="256px" height="184px" viewBox="0 0 256 184" version="1.1" xmlns="http://www.w3.org/2000/svg" xmlns:xlink="http://www.w3.org/1999/xlink" preserveAspectRatio="xMidYMid">
    <defs>
        <linearGradient x1="49.9757898%" y1="-0.277985042%" x2="49.9757898%" y2="100.055626%" id="linearGradient-1">
            <stop stop-color="#FF7BFF" offset="0%"></stop>
            <stop stop-color="#F46BFF" offset="3.6%"></stop>
            <stop stop-color="#D945FF" offset="13.2%"></stop>
            <stop stop-color="#C527FF" offset="22.8%"></stop>
            <stop stop-color="#B611FF" offset="32.1%"></stop>
            <stop stop-color="#AD04FF" offset="41.2%"></stop>
            <stop stop-color="#AA00FF" offset="49.7%"></stop>
            <stop stop-color="#A601FB" offset="58.8%"></stop>
            <stop stop-color="#9A04F0" offset="68%"></stop>
            <stop stop-color="#8608DE" offset="77.2%"></stop>
            <stop stop-color="#690EC5" offset="86.4%"></stop>
            <stop stop-color="#4516A4" offset="95.5%"></stop>
            <stop stop-color="#311B92" offset="100%"></stop>
        </linearGradient>
        <linearGradient x1="50.0023166%" y1="0%" x2="50.0023166%" y2="100.281224%" id="linearGradient-2">
            <stop stop-color="#FF7BFF" offset="0%"></stop>
            <stop stop-color="#F46BFF" offset="3.6%"></stop>
            <stop stop-color="#D945FF" offset="13.2%"></stop>
            <stop stop-color="#C527FF" offset="22.8%"></stop>
            <stop stop-color="#B611FF" offset="32.1%"></stop>
            <stop stop-color="#AD04FF" offset="41.2%"></stop>
            <stop stop-color="#AA00FF" offset="49.7%"></stop>
            <stop stop-color="#A601FB" offset="58.8%"></stop>
            <stop stop-color="#9A04F0" offset="68%"></stop>
            <stop stop-color="#8608DE" offset="77.2%"></stop>
            <stop stop-color="#690EC5" offset="86.4%"></stop>
            <stop stop-color="#4516A4" offset="95.5%"></stop>
            <stop stop-color="#311B92" offset="100%"></stop>
        </linearGradient>
        <linearGradient x1="49.9901436%" y1="100.80222%" x2="49.9901436%" y2="-1.37223066%" id="linearGradient-3">
            <stop stop-color="#FF7BFF" offset="0%"></stop>
            <stop stop-color="#F268FF" offset="8.3%"></stop>
            <stop stop-color="#D843FF" offset="27.1%"></stop>
            <stop stop-color="#C426FF" offset="45.9%"></stop>
            <stop stop-color="#B611FF" offset="64.4%"></stop>
            <stop stop-color="#AD04FF" offset="82.6%"></stop>
            <stop stop-color="#AA00FF" offset="100%"></stop>
        </linearGradient>
        <linearGradient x1="49.9815761%" y1="100.821447%" x2="49.9815761%" y2="-0.693418966%" id="linearGradient-4">
            <stop stop-color="#AA00FF" offset="0%"></stop>
            <stop stop-color="#A601FB" offset="18.1%"></stop>
            <stop stop-color="#9A04F0" offset="36.3%"></stop>
            <stop stop-color="#8608DE" offset="54.6%"></stop>
            <stop stop-color="#690EC5" offset="72.9%"></stop>
            <stop stop-color="#4516A4" offset="91.1%"></stop>
            <stop stop-color="#311B92" offset="100%"></stop>
        </linearGradient>
        <linearGradient x1="49.9967392%" y1="100.014062%" x2="49.9967392%" y2="-0.0936019003%" id="linearGradient-5">
            <stop stop-color="#FF7BFF" offset="0%"></stop>
            <stop stop-color="#F46BFF" offset="3.6%"></stop>
            <stop stop-color="#D945FF" offset="13.2%"></stop>
            <stop stop-color="#C527FF" offset="22.8%"></stop>
            <stop stop-color="#B611FF" offset="32.1%"></stop>
            <stop stop-color="#AD04FF" offset="41.2%"></stop>
            <stop stop-color="#AA00FF" offset="49.7%"></stop>
            <stop stop-color="#A601FB" offset="58.8%"></stop>
            <stop stop-color="#9A04F0" offset="68%"></stop>
            <stop stop-color="#8608DE" offset="77.2%"></stop>
            <stop stop-color="#690EC5" offset="86.4%"></stop>
            <stop stop-color="#4516A4" offset="95.5%"></stop>
            <stop stop-color="#311B92" offset="100%"></stop>
        </linearGradient>
    </defs>
    <g>
				<path d="M72.8781446,13.9980345 C66.7492906,6.05486336 59.689254,1.01037325 51.2216196,0.0111851872 C50.2112349,0.0345475632 49.2008502,0.113620317 48.2012892,0.271765024 C17.5197375,5.12573665 0.780257749,48.3819822 0,91.6384511 C0.780257749,134.894347 17.5197375,178.150816 48.2030645,183.004878 C49.2026828,183.162938 50.2112349,183.241968 51.223395,183.265448 C59.690972,182.266117 66.7492906,177.219633 72.8798627,169.278238 C56.8040767,151.530217 49.0228603,120.178111 48.5087055,91.6384511 C49.021085,63.0982185 56.801786,31.7462268 72.8781446,13.9980345 Z" fill="url(#linearGradient-1)"></path>
				<path d="M207.61844,0.271363 C206.619108,0.113217721 205.610613,0.034144967 204.59811,0.0107826483 C204.402252,0.00718843219 204.206395,0 204.010537,0 C197.888555,0 165.117913,0.00359421037 157.673033,0 C157.428498,0 157.184535,0.00718843219 156.939999,0.0143768071 C162.653085,0.569682192 167.913752,2.41171722 172.690501,5.34818393 C176.422676,7.64308526 179.837013,10.5669758 182.943246,13.9976337 C199.019604,31.7458259 206.800649,63.0982185 207.314918,91.6378784 C206.800649,120.177538 199.019604,151.530217 182.943246,169.278238 C179.837013,172.706891 176.424394,175.632729 172.690501,177.92747 C167.913752,180.864188 162.653085,182.705937 156.939999,183.26144 C157.184535,183.268885 157.428498,183.275757 157.673033,183.275757 C165.117913,183.272321 197.888555,183.275757 204.010537,183.275757 C204.206395,183.275757 204.402252,183.270603 204.59811,183.264876 C205.608323,183.241968 206.619108,183.162938 207.61844,183.004305 C238.299935,178.148525 255.041178,134.894347 255.821745,91.6378784 C255.041178,48.3816386 238.301653,5.1253415 207.61844,0.271363 Z" fill="url(#linearGradient-2)"></path>
				<path d="M142.589134,156.719298 C140.392322,161.4027 138.146832,165.591877 135.824029,169.34066 C135.434032,169.969466 135.500464,170.776376 135.978654,171.338751 C141.132801,177.38972 146.974168,181.510175 153.72152,182.897786 C154.782129,183.115405 155.857055,183.228224 156.937708,183.264303 C162.650794,182.708801 167.911461,180.867052 172.68821,177.930333 C176.420386,175.635592 179.834722,172.712045 182.941527,169.281101 C173.378866,156.889958 166.07773,137.450804 159.215269,115.332067 C158.967297,114.530883 157.829376,114.532601 157.586558,115.337794 C153.180335,129.980154 148.403585,144.324719 142.589134,156.719298 Z" fill="url(#linearGradient-3)"></path>
				<path d="M72.87929,13.9994662 C82.4419516,26.3904949 89.7425151,45.8297629 96.6049761,67.9482713 C96.8529479,68.7500276 97.9914418,68.7483095 98.2336867,67.9431171 C102.642201,53.3002988 107.41895,38.9558482 113.233401,26.5612117 C115.430213,21.8779242 117.675704,17.6889195 119.998506,13.9401363 C120.386785,13.3129338 120.32379,12.5042481 119.843882,11.9435341 C114.689161,5.8909042 108.848367,1.77014613 102.099297,0.382783069 C101.034679,0.163536517 99.9505905,0.0503189108 98.8630654,0.0143768071 C98.6259746,0.00718843219 98.3865931,0.00179710232 98.1477842,0.00179710232 C90.7029046,0.00359421037 57.9322624,0.00179710232 51.8105669,0 C51.6145947,0 51.4186799,0.00539131269 51.2227077,0.0107826483 C59.6903993,1.0117706 66.750436,6.0562378 72.87929,13.9994662 Z" fill="url(#linearGradient-4)"></path>
				<path d="M172.692219,5.34499408 C167.91547,2.40852165 162.655376,0.566490629 156.941717,0.0111851872 C155.861064,0.0453302115 154.78442,0.158547875 153.725529,0.377794427 C127.858581,5.69183385 115.336293,51.1568034 103.631224,91.635015 C94.5158283,123.181261 85.7446147,152.606861 72.87929,169.274802 C66.750436,177.216197 59.6903993,182.26268 51.2227077,183.262012 C51.4186799,183.265448 51.6145947,183.272893 51.8105669,183.272893 C57.9322624,183.272893 90.7029046,183.268885 98.1477842,183.272893 C98.3923199,183.272893 98.6368556,183.265448 98.8813912,183.258576 C99.9614715,183.224215 101.038688,183.110824 102.097579,182.891486 C127.964527,177.575842 140.486242,132.111108 152.191884,91.6327242 C161.306707,60.0864784 170.078493,30.6608206 182.943818,13.9926513 C179.838731,10.5637688 176.424967,7.63987824 172.692219,5.34499408 Z" fill="url(#linearGradient-5)"></path>
		</g>
</svg>

<svg width="256" height="184" xmlns="http://www.w3.org/2000/svg" preserveAspectRatio="xMidYMid"><defs><linearGradient x1="49.976%" y1="-.278%" x2="49.976%" y2="100.056%" id="a"><stop stop-color="#FF7BFF" offset="0%"/><stop stop-color="#F46BFF" offset="3.6%"/><stop stop-color="#D945FF" offset="13.2%"/><stop stop-color="#C527FF" offset="22.8%"/><stop stop-color="#B611FF" offset="32.1%"/><stop stop-color="#AD04FF" offset="41.2%"/><stop stop-color="#A0F" offset="49.7%"/><stop stop-color="#A601FB" offset="58.8%"/><stop stop-color="#9A04F0" offset="68%"/><stop stop-color="#8608DE" offset="77.2%"/><stop stop-color="#690EC5" offset="86.4%"/><stop stop-color="#4516A4" offset="95.5%"/><stop stop-color="#311B92" offset="100%"/></linearGradient><linearGradient x1="50.002%" y1="0%" x2="50.002%" y2="100.281%" id="b"><stop stop-color="#FF7BFF" offset="0%"/><stop stop-color="#F46BFF" offset="3.6%"/><stop stop-color="#D945FF" offset="13.2%"/><stop stop-color="#C527FF" offset="22.8%"/><stop stop-color="#B611FF" offset="32.1%"/><stop stop-color="#AD04FF" offset="41.2%"/><stop stop-color="#A0F" offset="49.7%"/><stop stop-color="#A601FB" offset="58.8%"/><stop stop-color="#9A04F0" offset="68%"/><stop stop-color="#8608DE" offset="77.2%"/><stop stop-color="#690EC5" offset="86.4%"/><stop stop-color="#4516A4" offset="95.5%"/><stop stop-color="#311B92" offset="100%"/></linearGradient><linearGradient x1="49.99%" y1="100.802%" x2="49.99%" y2="-1.372%" id="c"><stop stop-color="#FF7BFF" offset="0%"/><stop stop-color="#F268FF" offset="8.3%"/><stop stop-color="#D843FF" offset="27.1%"/><stop stop-color="#C426FF" offset="45.9%"/><stop stop-color="#B611FF" offset="64.4%"/><stop stop-color="#AD04FF" offset="82.6%"/><stop stop-color="#A0F" offset="100%"/></linearGradient><linearGradient x1="49.982%" y1="100.821%" x2="49.982%" y2="-.693%" id="d"><stop stop-color="#A0F" offset="0%"/><stop stop-color="#A601FB" offset="18.1%"/><stop stop-color="#9A04F0" offset="36.3%"/><stop stop-color="#8608DE" offset="54.6%"/><stop stop-color="#690EC5" offset="72.9%"/><stop stop-color="#4516A4" offset="91.1%"/><stop stop-color="#311B92" offset="100%"/></linearGradient><linearGradient x1="49.997%" y1="100.014%" x2="49.997%" y2="-.094%" id="e"><stop stop-color="#FF7BFF" offset="0%"/><stop stop-color="#F46BFF" offset="3.6%"/><stop stop-color="#D945FF" offset="13.2%"/><stop stop-color="#C527FF" offset="22.8%"/><stop stop-color="#B611FF" offset="32.1%"/><stop stop-color="#AD04FF" offset="41.2%"/><stop stop-color="#A0F" offset="49.7%"/><stop stop-color="#A601FB" offset="58.8%"/><stop stop-color="#9A04F0" offset="68%"/><stop stop-color="#8608DE" offset="77.2%"/><stop stop-color="#690EC5" offset="86.4%"/><stop stop-color="#4516A4" offset="95.5%"/><stop stop-color="#311B92" offset="100%"/></linearGradient></defs><path d="M72.878 13.998C66.75 6.055 59.69 1.01 51.222.011c-1.01.024-2.021.103-3.02.26C17.52 5.127.78 48.383 0 91.639c.78 43.256 17.52 86.513 48.203 91.367 1 .158 2.008.237 3.02.26 8.468-.999 15.526-6.045 21.657-13.987-16.076-17.748-23.857-49.1-24.371-77.64.512-28.54 8.293-59.892 24.37-77.64z" fill="url(#a)"/><path d="M207.618.271a22.594 22.594 0 00-3.02-.26c-.196-.004-.392-.011-.587-.011-6.122 0-38.893.004-46.338 0-.245 0-.488.007-.733.014 5.713.556 10.974 2.398 15.75 5.334 3.733 2.295 7.147 5.219 10.253 8.65 16.077 17.748 23.858 49.1 24.372 77.64-.514 28.54-8.295 59.892-24.372 77.64-3.106 3.429-6.519 6.355-10.252 8.65-4.777 2.936-10.038 4.778-15.751 5.333.245.008.488.015.733.015 7.445-.004 40.216 0 46.338 0 .195 0 .391-.005.587-.011a22.525 22.525 0 003.02-.26c30.682-4.856 47.423-48.11 48.204-91.367-.78-43.256-17.52-86.513-48.204-91.367z" fill="url(#b)"/><path d="M142.59 156.72c-2.198 4.683-4.443 8.872-6.766 12.62a1.7 1.7 0 00.155 1.999c5.154 6.05 10.995 10.171 17.743 11.559a19.2 19.2 0 003.216.366c5.713-.555 10.973-2.397 15.75-5.334 3.732-2.294 7.147-5.218 10.254-8.649-9.563-12.391-16.864-31.83-23.727-53.949-.248-.801-1.386-.8-1.628.006-4.407 14.642-9.183 28.987-14.998 41.381z" fill="url(#c)"/><path d="M72.88 14c9.562 12.39 16.863 31.83 23.725 53.948.248.802 1.386.8 1.629-.005 4.408-14.643 9.185-28.987 15-41.382 2.196-4.683 4.442-8.872 6.765-12.62a1.698 1.698 0 00-.155-1.997C114.689 5.89 108.848 1.77 102.099.383a19.179 19.179 0 00-3.236-.369 23.638 23.638 0 00-.715-.012C90.703.004 57.932.002 51.81 0c-.196 0-.392.005-.588.01C59.69 1.013 66.75 6.057 72.879 14z" fill="url(#d)"/><path d="M172.692 5.345c-4.777-2.936-10.037-4.779-15.75-5.334-1.08.034-2.158.148-3.216.367-25.867 5.314-38.39 50.779-50.095 91.257-9.115 31.546-17.886 60.972-30.752 77.64-6.129 7.941-13.189 12.988-21.656 13.987.196.003.392.01.588.01 6.121 0 38.892-.003 46.337 0 .244 0 .489-.007.733-.013a18.795 18.795 0 003.217-.368c25.867-5.315 38.388-50.78 50.094-91.258 9.115-31.547 17.886-60.972 30.752-77.64-3.105-3.43-6.519-6.353-10.252-8.648z" fill="url(#e)"/></svg>
